X: 21521
T: La POSTE QUADRILLES No. 1.--Pantalon.
C: Camille Schubert
%R: jig
B: W. Hamilton "Universal Tune-Book" Vol. 2 Glasgow 1846 p.152 #1
S: http://s3-eu-west-1.amazonaws.com/itma.dl.printmaterial/book_pdfs/hamiltonvol2web.pdf
Z: 2016 John Chambers <jc:trillian.mit.edu>
M: 6/8
L: 1/8
K: C
% - - - - - - - - - - - - - - - - - - - - - - - - -
G |!segno!\
^FzG AzB | d2c- cBc | e2d- d^cd | a2g- g^fg |\
b2a- aef | a2g- g^fg | bag =fed | c2e c2 H|]
z |!ff!\
B2B/B/ B^AB | d2d/d/ d^cd | G2G/G/ G^FG | B3- BcB |\
BzA GzE | EzD ^czd | ^fze =czA | G2B G2G !segno!|]
d/d/ |\
d2d/d/ d2d/d/ | d3- dBG | dBG dBG | (d3 B) zd/d/ |\
(dc'b) a2d/d/ | dba g2g | [^fF][f'f][fF] [d'd][c'c][aA] | [g3G3-][g2G2][gG] !segno!|]
% - - - - - - - - - - - - - - - - - - - - - - - - -

%%sep 1 1 500
%%sep 1 1 500

